X:1
T:[ID 7-7 (Variante mit 10 Taktigem B-Teil)]
T:[ID 7-7 (Variante mit 10 Taktigem B-Teil)]
T:Bezeichnung standardisiert: Menuett Menuetto 6. In dieser Quelle auch als: Menuet
T:Urheber unbekannt Datum in der hier transkribierten schriftlichen Quelle: 1792
C:Urheber unbekannt
C:Datum in der hier transkribierten schriftlichen Quelle: 1792
%%score ( 1 2 )
L:1/8
M:3/4
K:G
V:1 treble 
V:2 treble 
V:1
 g4 (3gab | d2 Tc2 B2 | A4 (3cde | d2 F2 G2 | GBdgbg | a2 ^c2 d2 | e2 d2 T^c2 | d6 :: d4 (3de_f | %9
 edcB c2 |"^1)" e4 (3efg | fed^c d2 |"^O)" c2 B2 A2 | G2 F2 G2 |"^O)" c2 B2 A2 | G2 F2 G2 | %16
 A2 G2 F2 | G6 :| %18
V:2
 x6 | x6 | x6 | x6 | x6 | x6 | x6 | x6 :: x6 | x6 | c4 (3cde | dcBA G2 | x6 | x6 | x6 | x6 | %16
 C2 B,2 A,2 | G,6 :| %18

